telier/img/apple-logo.svg

<svg width="31" height="38" viewBox="0 0 31 38" fill="none" xmlns="http://www.w3.org/2000/svg">
<path d="M21.0458 6.07608C22.2218 4.65506 23.0548 2.71954 23.0548 0.75951C23.0548 0.490006 23.0303 0.220503 22.9813 0C21.0703 0.073501 18.7672 1.27402 17.3952 2.89104C16.3172 4.11605 15.3127 6.07608 15.3127 8.03611C15.3127 8.33011 15.3617 8.62411 15.3862 8.72211C15.5087 8.74661 15.7047 8.77112 15.9007 8.77112C17.6157 8.77112 19.7718 7.6196 21.0458 6.07608ZM22.3933 9.18762C19.5268 9.18762 17.1992 10.9271 15.7047 10.9271C14.1122 10.9271 12.0297 9.28562 9.53063 9.28562C4.80206 9.28562 0 13.2057 0 20.5803C0 25.1863 1.76402 30.0374 3.96905 33.1734C5.85558 35.8195 7.4971 38 9.87363 38C12.2257 38 13.2547 36.432 16.1702 36.432C19.1348 36.432 19.7963 37.951 22.3933 37.951C24.9658 37.951 26.6809 35.599 28.2979 33.2714C30.1109 30.6009 30.8704 28.0039 30.8949 27.8814C30.7479 27.8324 25.8233 25.8233 25.8233 20.1883C25.8233 15.3127 29.6944 13.1322 29.9149 12.9607C27.3669 9.28562 23.4713 9.18762 22.3933 9.18762Z" fill="#242424"/>
</svg>

<svg width="31" height="38" fill="none" xmlns="http://www.w3.org/2000/svg"><path d="M21.046 6.076c1.176-1.42 2.009-3.356 2.009-5.316 0-.27-.025-.54-.074-.76-1.91.074-4.214 1.274-5.586 2.891-1.078 1.225-2.082 3.185-2.082 5.145 0 .294.049.588.073.686.123.025.319.05.515.05 1.715 0 3.87-1.152 5.145-2.696zm1.347 3.112c-2.866 0-5.194 1.74-6.688 1.74-1.593 0-3.675-1.642-6.174-1.642C4.802 9.286 0 13.206 0 20.58c0 4.606 1.764 9.457 3.969 12.593C5.856 35.82 7.497 38 9.874 38c2.352 0 3.38-1.568 6.296-1.568 2.965 0 3.626 1.519 6.223 1.519 2.573 0 4.288-2.352 5.905-4.68 1.813-2.67 2.572-5.267 2.597-5.39-.147-.049-5.072-2.058-5.072-7.693 0-4.875 3.871-7.056 4.092-7.227-2.548-3.675-6.444-3.773-7.522-3.773z" fill="#242424"/></svg>
